!!!COM:	la Rue, Pierre de
!!!CDT:	~1452///-1518/11/20
!!!OPR:	Missa Sancta Dei genitrix
!!!ONM:	5
!!!OTL:	Agnus Dei
!!!AGN:	Mass; Agnus Dei
!!!SCT:	Rue1026e
!!!SCA:	Rue1026e
!!!voices:	4
!!!voices-OPR:	4
**kern	**kern	**kern	**kern
*staff4	*staff3	*staff2	*staff1
*Ivox	*Ivox	*Ivox	*Ivox
*I"Bassus	*I"Tenor	*I"Contra	*I"Discantus
*I'B	*I'T	*I'C	*I'D
*>[A,B]	*>[A,B]	*>[A,B]	*>[A,B]
*>A	*>A	*>A	*>A
*clefF4	*clefGv2	*clefGv2	*clefG2
*k[]	*k[]	*k[]	*k[]
*M3/1	*M3/1	*M3/1	*M3/1
*met(O)	*met(O)	*met(O)	*met(O)
!!section: Agnus Dei I
!!!OMD: Agnus Dei I
=1-	=1-	=1-	=1-
0E	0.r	0.r	0.r
1F	.	.	.
=2	=2	=2	=2
1.E	0.r	0e	0.r
2C/	.	.	.
1D	.	1f	.
=3	=3	=3	=3
1E	0e	1.e	0.r
1AA	.	.	.
.	.	2c\	.
1D	1f	1d	.
=4	=4	=4	=4
2C/	1.e	1e	1r
1c	.	.	.
.	.	1A	1r
4B\	2c\	.	.
4A\	.	.	.
[1G	1d	1B	[1b
=5	=5	=5	=5
1G]	1e	2G/	1b]
.	.	1g	.
1r	1A	.	1cc
.	.	2f#i\	.
2.G\	1r	[1g	[1b
4F\	.	.	.
=6	=6	=6	=6
4E\	1B	1g]	2b\]
4D\	.	.	.
2E\	.	.	2g/
1AA	1c	2r	1a
.	.	1e	.
[1E	1B	.	1b
.	.	[2g\	.
=7	=7	=7	=7
2E\]	2G/	4g\]	2.e/
.	.	4f\	.
2AA/	2A/	1e	.
.	.	.	4f/
1E	1B	.	2g/
.	.	4d\	1a
.	.	4c\	.
2r	1E	1B	.
2G\	.	.	2g/
=8	=8	=8	=8
2F\	0.r	2.A/	2a/
1A	.	.	1cc
.	.	4B\	.
.	.	4c\	.
.	.	4d\	.
2G\	.	1e	2b\
1F	.	.	1a
.	.	2d\	.
=9	=9	=9	=9
1E	1B	2e\	1g
.	.	1g	.
2C/	2c\	.	1r
1G	1B	4f\	.
.	.	4e\	.
.	.	2d\	1r
4F\	2G/	2g\	.
4E\	.	.	.
=10	=10	=10	=10
2D\	2A/	2f\	2r
2G\	2B\	2d\	1g
1C	1E	2e\	.
.	.	1A	4f/
.	.	.	4e/
1BB	1r	.	2d/
.	.	2G#i/	2g/
=11	=11	=11	=11
2AA/	1e	2.A/	2c/
1A	.	.	1cc
.	.	4B\	.
.	1f	2c\	.
2D\	.	2d\	4b\
.	.	.	4a/
2E\	2e\	2B\	2g/
[2F\	2c\	[2A/	[2a/
=12	=12	=12	=12
2F\]	2d\	4A/]	2a/]
.	.	4B\	.
2E\	2e\	2c\	1g
1D	1A	1d	.
.	.	.	2f/
1C	1e	1G	1g
=13	=13	=13	=13
2D\	2f\	2r	2cc\
2E\	2.e\	2G/	4b\
.	.	.	4a/
1F	.	1A	2cc\
.	4c\	.	.
.	2d\	.	4b\
.	.	.	4a/
1E	1e	2B\	2g/
.	.	2G/	[2cc\
=14	=14	=14	=14
1F	1A	2.c\	4cc\]
.	.	.	4b\
.	.	.	1a
.	.	4A/	.
1E	1r	1B	.
.	.	.	2g#i/
1F	1r	1A	1a
=15	=15	=15	=15
3E\V	1r	0.r	3g/V
3F\	.	.	3a/
3E\Z	.	.	3b\Z
3C/V	3e\V	.	3cc\V
3D\	3f\	.	3b\
3E\Z	3e\Z	.	3g/Z
3AA/V	3c\V	.	3a/V
3BB/	3d\	.	3g/
3C/Z	3e\Z	.	3e/Z
=16	=16	=16	=16
1D	2.A/	2r	1f
.	.	2F/	.
.	4B\	.	.
2C/	2c\	2.G/	2e/
2.G\	1B	.	2d/
.	.	4A/	.
.	.	2B\	1g
4F\	.	.	.
2E\	2G/	2c\	.
=17	=17	=17	=17
2D\	2A/	1d	2f/
1G	2B\	.	2.g/
.	2E/	2B\	.
.	.	.	4e/
2C/	2e\	2c\	1a
2D\	2f\	1B	.
2E\	[2e\	.	2g#i/
=18	=18	=18	=18
1AA	2e\]	1A	2a/
.	2c\	.	2e/
2r	2d\	1r	2f/
2E\	2e\	.	2g/
2F\	2A/	2r	2c/
2C/	2e\	2G/	2cc\
=19	=19	=19	=19
2D\	2f\	2F/	4b\
.	.	.	4a/
2E\	2e\	2G/	2.cc\
1F	2c\	1A	.
.	.	.	4b\
.	2d\	.	1a
1E	1e	2B\	.
.	.	[2c\	2g#i/
=20	=20	=20	=20
2.F\	[0.Al	4c\]	[0.al
.	.	4B\	.
.	.	4A/	.
4E\	.	4G/	.
2D\	.	2F/	.
2C/	.	2E/	.
1D	.	1F	.
=21	=21	=21	=21
0.AAl	0.A]	0.El	0.a]
!!LO:LB:i:g=z
=22||	=22||	=22||	=22||
*>B	*>B	*>B	*>B
*clefF4	*clefGv2	*clefGv2	*clefG2
*k[]	*k[]	*k[]	*k[]
*M3/1	*M3/1	*M3/1	*M3/1
*met(C|3)	*met(C|3)	*met(C|3)	*met(C|3)
!!section: Agnus Dei II
!!!OMD: Agnus Dei II
0E	0B	0e	0g
1AA	1c	1e	1a
=23	=23	=23	=23
[0.E	0.B	1e	1.g
.	.	1.g	.
.	.	.	2a/
.	.	.	1b
.	.	2f\	.
=24	=24	=24	=24
1E]	1G	2e\	1.cc
.	.	2d\	.
0F	0A	1c	.
.	.	.	2b\
.	.	1d	1a
=25	=25	=25	=25
1.E	0.B	0e	0.g
4D\	.	.	.
4C/	.	.	.
1BB	.	1d	.
=26	=26	=26	=26
0AA	[0.E	2c\	0a
.	.	2d\	.
.	.	2e\	.
.	.	2f\	.
1GG	.	1g	1b
=27	=27	=27	=27
1AA	0.E_	1.e	1cc
1GG	.	.	1.b
.	.	2d\	.
[1AA	.	1c	.
.	.	.	2a/
=28	=28	=28	=28
1AA]	0.E]	1A	0a
0E	.	1B	.
.	.	1B	1g#i
=29	=29	=29	=29
1.F	0.r	1A	1a
.	.	2d\	0f
2E\	.	2c\	.
1D	.	2B\	.
.	.	2A/	.
=30	=30	=30	=30
1C	0.r	0A	1e
0BB	.	.	0d
.	.	1G#i	.
=31	=31	=31	=31
0.AA	0E	0A	0.c
.	1F	1r	.
=32	=32	=32	=32
0.r	0.E	1B	0.g
.	.	1c	.
.	.	1B	.
=33	=33	=33	=33
0.r	1F	1A	1a
.	0G	0d	0b
=34	=34	=34	=34
0.AA	0.A	1.c	0.cc
.	.	2d\	.
.	.	2e\	.
.	.	2f\	.
=35	=35	=35	=35
0.GG	0.D	1g	1.b
.	.	0G	.
.	.	.	2a/
.	.	.	1g
=36	=36	=36	=36
0D	0.r	1.A	0f
.	.	4G/	.
.	.	4F/	.
1C	.	1E	1g
=37	=37	=37	=37
0F	1r	1D	0a
.	1r	0d	.
1G	1B	.	1g
=38	=38	=38	=38
0A	0c	0.r	1e
.	.	.	1.f
1G	1B	.	.
.	.	.	2e/
=39	=39	=39	=39
1E	1G	0.r	0e
0F	0A	.	.
.	.	.	1d
=40	=40	=40	=40
0.E	0B	1.G	1.e
.	.	2A/	2f/
.	1E	2B\	1g
.	.	2c\	.
=41	=41	=41	=41
1D	0.r	0d	1f
1F	.	.	1a
1G	.	1d	1b
=42	=42	=42	=42
1.A	0.r	1c	1cc
.	.	1e	0a
2G\	.	.	.
1F	.	2d\	.
.	.	2c\	.
=43	=43	=43	=43
1E	0.r	0c	1g
0D	.	.	0f
.	.	1B	.
=44	=44	=44	=44
1.C	1G	0c	0e
.	1A	.	.
2D\	.	.	.
2E\	1G	1c	[1g
2F\	.	.	.
=45	=45	=45	=45
1G	1B	1e	1g]
2.F\	1c	0f	1.a
4E\	.	.	.
1D	1d	.	.
.	.	.	2b\
=46	=46	=46	=46
1.C	0G	1.e	0cc
2D\	.	2f\	.
1E	1r	1g	1b
=47	=47	=47	=47
0F	0A	1c	1.a
.	.	1d	.
.	.	.	2f/
1E	1B	1e	1g
=48	=48	=48	=48
2F\	1A	2c\	0a
1D	.	2.f\	.
.	2.F/	.	.
.	.	4e\	.
4C/	.	1d	.
4BB/	4G/	.	.
1AA	1A	.	1r
.	.	2c#i\	.
=49	=49	=49	=49
1GG	1D	1d	1b
1C	1r	1e	1cc
1D	1r	1d	1b
=50	=50	=50	=50
0E	0.r	1B	1.g
.	.	1c	.
.	.	.	2a/
[1G	.	1B	1b
=51	=51	=51	=51
1G]	0.r	1G	0e
0F	.	0A	.
.	.	.	1d
=52	=52	=52	=52
1.E	0.r	0B	[0.el
2F\	.	.	.
1G	.	1E	.
=53	=53	=53	=53
[0.E	1B	0.r	0.e_
.	1c	.	.
.	1B	.	.
=54	=54	=54	=54
0E]	1.G	1B	0.e_
.	.	1c	.
.	2A/	.	.
1r	1B	1B	.
=55	=55	=55	=55
1B	[0.El	1.G	0.e_
1c	.	.	.
.	.	2A/	.
1B	.	1B	.
=56	=56	=56	=56
1.G	0.E_	1.E	0.e_
2A\	.	2F/	.
1B	.	2G/	.
.	.	2A/	.
=57	=57	=57	=57
0.El	0.E]	0.Bl	0.e]
==	==	==	==
*-	*-	*-	*-
!!!RDF**kern: l=long note in original notation
!!!RDF**kern: i=editorial accidental
!!!RDF**kern: V=start of tuplet marker
!!!RDF**kern: Z=end of tuplet marker
!!!ENC:	Jesse Rodin; Chris Gage 10-25-2012
!!!END:	2012/11/12/
!!!EED:	Jesse Rodin
!!!EEV:	2012/12/15/
!!!ONB:	Translated from MusicXML and edited on 2012/12/15/ by Craig Sapp
!!muse2ps: T^@{OPR}^u^@{ONM}{. }@{OTL}^C^@{COM}^i2I150v85,85,85,150Q16
